X:1
T:Jehanne disoit ung iour
T:Garnier
T:Source : Livre XI de 28 chansons nouvelles à 4 parties---Paris---P.Attaingnant---1542. Editor : André Vierendeels (03/06/18) Notes : Original clefs : G2, C2, C3, C4 Original note values have been halved Editorial accidentals above the staff
T:Jehanne disoit ung iour
T:©
T:©
T:©
C:Garnier
Z:©
%%score [ 1 [ 2 3 ] 4 ]
L:1/8
Q:1/4=120
M:2/2
K:C
V:1 treble nm="Soprano" snm="S"
V:2 treble nm="Alto 1" snm="A 1"
V:3 treble nm="Alto 2" snm="A 2"
V:4 treble-8 nm="Tenor" snm="T"
V:1
 A4 d3 d | c2 c2 d2 f2 | f2 e3 d d2- | dc/B/ c2 d4 | z2 A2 d3 d | c2 c2 dcde | f2 e3 d d2- | %7
w: Je- han- ne|di- soit ung iour|à Ja- mi- *|* * * * net,|Je- han- ne|di- soit ung _ _ _|iour à _ Ja-|
 d2 c2 d4 | z2 f2 f2 f2 | e4 z2 c2 | d2 e2 f2 g2 | e3 d cB c2- | cB B3 A A2- | A2 G2 A4 | %14
w: * mi- net,|a- my, vueiil-|lez au|la- bou- rai- g'en-|ten- * * * *||* * dre,|
 z2 f2 ff e2 | z2 f2 ff e2- | edcB ABcd | ec f4 e2 | f4 z2 c2 | c2 f3 e d2- | dc/B/ c2 d4- | %21
w: cul- ti- vez tost,|cul- ti- vez tost|_ mon io- ly iar- * * *|* * * di-|net, et|l'ar- rou- * *|* * * * sez,|
 d4 z2 c2 | c3 c B2 G2 | B4 A2 z f | f3 f e2 c2 | e2 d4 c2 | d8 | z2 c2 c3 c | B2 G2 B4 | %29
w: _ pour|la se- men- ce|pren- dre, pour|la se- men- ce|pren- * *|dre,|pour la se-|men- ce pren-|
 A2 z f f3 f | e2 c2 e2 d2- |"^#" d2 c2 d4- | d8 |] %33
w: dre, pour la se-|men- ce pren- *|* * dre.|_|
V:2
 z4 z2 D2 | A3 A F2 A2 | c3 c B2 B2 | A2 A,2 D3 D | C2 C2 D2 F2 | E3 C G4 | z4 z2 A2 | A2 A2 F4- | %8
w: Je-|han- ne di- soit|ung iour à Ja-|* mi- net, di-|soit ung iour à|Ja- mi- net,|a-|my, vueil- lez|
 F4 z2 A2 | A2 G2 A3 G | F2 E4 D2 | E2 A2 A2 G2 | F2 G3 FED | E4 E2 z2 | A2 AA F2 z2 | A2 AA A3 A | %16
w: _ au|la- bou- rai- ge'en-|ten- * *|de, au la- bou-|ra- g'en- * * *|ten- dre,|cul- ti- vez tost,|cul- i- vez tost mon|
 G2 A2 F2 G2 | A4 z2 c2 | c2 B2 c2 c2 | A2 A2 F2 G2 | A8 | z2 A2 A3 A | G2 E2 G4 | D4 z4 | %24
w: io- ly iar- di-|net, mon|io- ly iar- di-|net, et l'ar- rou-|sez,|pour la se-|men- ce pren-|dre,|
 z2 c2 c3 c | B2 G2 A4 | A4 z2 A2 | A3 A G2 E2 | G4 D4 | z4 z2 c2 | c3 c B2 G2 | A4 A4- | A8 |] %33
w: pour la se-|men- ce pren-|dre, pour|la se- men- ce|pren- dre,|pour|la se- men- ce|pren- dre.|_|
V:3
 z8 | A,4 D3 D | C2 C2 D2 G2 | F2 E2 F3 E/D/ | E4 D4 | z2 A,2 D3 D | C2 C2 D2 F2 | E2 E2 D2 z D | %8
w: |Je- han- ne|di- soit ung iour|à Ja- mi- * *|* net,|di- soit ung|iour à Ja- *|* mi- net, a-|
 D2 D2 C2 z C | C2 B,2 A,4 | z2 C2 C2 B,2 | CB,CD E4 | C2 D3 CB,A, | B,4 A,4 | z2 D2 DD C2 | %15
w: my, vueil- lez, a-|my vueil- lez|au la- bou-|rai- * * * *|g'en- ten- * * *|* dre,|cul- ti- vez tost,|
 z2 D2 DDCD | E2 F2 F2 ED | C2 C2 G2 A2- | AG F3 E/D/ E2 | F2 C2 D2 D2 | E4 z2 F2 | F3 F E2 C2 | %22
w: cul- ti- vez tost mon|io- ly iar- di- net,|mon io- ly iar-|* * * * * di-|net, et l'ar rou|sez pour|la se- men- ce|
 E4 D4 | z2 D2 D3 D | C2 A,2 CDEF | GFED E4 | D2 z F F3 F | E2 C2 E4 | D4 z2 D2 | D3 D C2 A,2 | %30
w: pren- dre,|pour la se-|men- ce pren- * * *||dre, pour la se-|men- ce pren-|dre, pour|la se- men- ce|
 CDEF GFED | E4 D4- | D8 |] %33
w: pren- * * * * * * *|* dre.|_|
V:4
 z8 | z4 z2 D2 | A3 A G2 G2 |"^b""^b" A2 c2 B2 B2 | A4 z2 D2 | A3 A G2 G2 | A2 E2 F2 D2 | %7
w: |Je-|han' di- soit ung|iour à Ja- mi-|net, di-|soit ung iour à|Ja- * mi- *|
"^b" A4 z2 B2 |"^b""^b" B2 B2 A4 | z2 E2 F3 E | D2 C2 D4 | A2 A2 c3 B | A2 G2 A4 | E4 z2 A2 | %14
w: net, a-|my, vueil- lez|au la- bou-|rai- g'en- ten-|dre, au la- bou-|rai- g'en- ten-|dre, cul-|
 AA D2 z2 A2 | AADE FGAB | c2 A2 dd c2 | z2 A2 B2 c2 | d2 d2 c4 | z2 F2 B2 B2 | A4 z2 d2 | %21
w: ti- vez tost cul-|ti- vez tost mon io- ly jar- di-|net, cul- ti- vez tost|mon io- ly|iar- di- net|et l'ar- rou-|sez pour|
 d3 d c2 A2 | c4 G2 z G | G3 G F2 D2 | F3 G A4 | G2 B2 A4 | D2 d2 d3 d | c2 A2 c4 | G2 z G G3 G | %29
w: la se- men- ce|pren- dre, pour|la se- men- ce|pren- * *||dre, pour la se-|men- ce pren-|dre, pour la se-|
 F2 D2 F3 G | A4 G2 B2 | A4 D4- | D8 |] %33
w: men- ce pren- *||* dre.|_|

